X: 04017
T: CHUCK'S HORNPIPE
C: Bob McQuillen 16 July 79
B: Bob's Note Book 04 #17
%R: hornpipe
Z: 2020 John Chambers <jc:trillian.mit.edu>
M: C
L: 1/8
K: G
D2 \
| G2F>G A2G>F | G2D2 D2G>A | B2B>d c>BA>G | A>Bc>e d2D2 |\
| G2F>G A2G>F | G2D>E D2B>c |1 d>BG>c B2A2 | G6 :|2 d>BG>E D2A2 | G6 ||
|: B>c \
| d>ed>B G2A>B | c2A2 A2A>B | c>dc>B A2d>c | B2G2 G2B>c |\
| d2d>e f>de>f | g2d2 d2B>d | e>dc>B A2d2 | G6 :|
%%begintext align
%% Chuck De Vinne, besides being a maker and
%% player of banjos (and incidentally, Duke Miller's
%% grandson) brought me a _WHOLE_ _GALLON_ of
%% fresh-picked strawberries!! Can you
%% imagine that?! The berries were better than
%% this tune. Thanks, Chuckie!
%%endtext
